!!!!SEGMENT: pl-cz--ii-87--009-001_chwalibog-izydor-konstanty--msza-zalobna-kirie.krn
!!!cenid: 18xx:1207
!!!COM: Chwalibóg, Izydor Konstanty
!!!COM-rismID: pe30020334
!!!CDT: 1826-1897
!!!CNT:
!!!OPR: Msza żałobna
!!!OTL: Kirie
!!!OMV: 001
!!!PDT: 1888
!!!AGN: Sacred; Mass
!!!SMS-siglum: PL-CZ
!!!SMS-shelfmark: II-87
!!!SMS-shelfwork: 009-001 M
!!!SMS-variant:
!!!SMS-altvar:
!!!NIFC-rismSourceID: 300033223
!!!NIFC-rismChildID: 300033232
!!!NIFC-islandoraID: pl-cz:33881
!!!URL-pdf-islandora: https://repozytorium.nifc.pl/islandora/object/pl-cz%3A33881/datastream/PDF/view
!!!URL-scan: https://polish.musicsources.pl/pl/lokalizacje/galeria/rekopisy/6814/1 @EN{Scan on Polish Music Sources Website} @PL{Skany w portalu Dziedzictwo Muzyki Polskiej w otwartym dostępie}
!!!ONB-nifc: UWAGA: części Mszy: Kirie, Graduale, Offertorium, Sanctus, Benedictus, Agnus
!!!AIN: 1 bass 1 organ 1 tenor
!!!key: f
**kern	**kern	**dynam	**kern	**text	**dynam	**kern	**text	**dynam
*part3	*part3	*part3	*part2	*part2	*part2	*part1	*part1	*part1
*staff4	*staff3	*	*staff2	*staff2	*	*staff1	*staff1	*
*	*I"Organ	*	*I"Bas	*	*	*I"Tenory	*	*
*Iorgan	*Iorgan	*	*Ibass	*	*	*Itenor	*	*
*ICklav	*ICklav	*	*ICvox	*	*	*ICvox	*	*
*IGacmp	*IGacmp	*	*IGcoro	*	*	*IGcoro	*	*
*clefF4	*clefG2	*	*clefF4	*	*	*clefG2	*	*
*k[b-e-a-d-]	*k[b-e-a-d-]	*	*k[b-e-a-d-]	*	*	*k[b-e-a-d-]	*	*
*f:	*f:	*	*f:	*	*	*f:	*	*
*M4/4	*M4/4	*	*M4/4	*	*	*M4/4	*	*
*met(c)	*met(c)	*	*met(c)	*	*	*met(c)	*	*
=1	=1	=1	=1	=1	=1	=1	=1	=1
*^	*^	*^	*	*	*	*^	*	*
!	!	!	!	!	!	!	!	!	!LO:TX:a:t=Msza żałobna na 3 głosy par P. Chwalibóg	!	!	!
!	!	!	!	!LO:DY:b:rj	!LO:DY:b=2:rj	!	!	!LO:DY:b:rj	!LO:TX:a:t=Kirie	!	!	!LO:DY:b:rj
2.F/	[1FF	2.a-/	2.f\	p	p	2.F\	.	p	2.a-/	2.f\	Za	p
4F/	.	4b-/	4g\	.	.	4F\	.	.	4b-/	4g\	swych	.
*	*	*	*	*v	*v	*	*	*	*	*	*	*
*	*	*v	*v	*	*	*	*	*	*	*	*
=2	=2	=2	=2	=2	=2	=2	=2	=2	=2	=2
4A-/	1FF]	1cc 1a- 1f	.	2F\	.	.	2cc/	2a-\	bra-	.
4AA-/	.	.	.	.	.	.	.	.	.	.
4C/	.	.	.	2F\	.	.	2cc/	2a-\	-ci	.
4F/	.	.	.	.	.	.	.	.	.	.
*v	*v	*	*	*	*	*	*	*	*	*
=3	=3	=3	=3	=3	=3	=3	=3	=3	=3
1En 1EEn	1dd- 1b- 1g	.	2.En\	.	.	2.dd-/	2.b-\	wzno-	.
.	.	.	4E\	.	.	4dd-/	4b-\	-sim	.
=4	=4	=4	=4	=4	=4	=4	=4	=4	=4
*	*^	*	*	*	*	*	*	*	*
!	!LO:TX:a:t=SIC&colon;s=f	!	!	!	!	!	!	!	!	!
2.F 2.FF/	2.cc 2.a- 2.e-/	2reyy	.	2F\	.	.	2cc/	2a-\	pie-	.
.	.	4reyy	.	4F\	.	.	4cc/	4a-\	-nia	.
4E-\	4ff/	4cc 4an 4f\	.	4r	.	.	4r	4ryy	.	.
=5	=5	=5	=5	=5	=5	=5	=5	=5	=5	=5
*	*	*^	*	*	*	*	*	*	*	*
2D-\	2ff/	2b-\	2rBByy	.	4D-\	.	.	4ff/	4b-\	Co	.
.	.	.	.	.	4D-\	.	.	4ff/	4b-\	nas	.
4C\	4ee- 4an/	[2f\	4rBByy	.	4C\	.	.	4ee-/	4an\	zgo-	.
4BB-\	4dd-/	.	4b-\	.	4BB-\	.	.	4dd-/	4b-\	-nym	.
!!LO:LB:g=original
=6	=6	=6	=6	=6	=6	=6	=6	=6	=6	=6	=6
2.BB-/	2dd-/	1f_	2b-\	.	2.BB-\	.	.	2dd-/	2b-\	wy-	.
.	4ee-/	.	4cc\	.	.	.	.	4ee-/	4cc\	-prze-	.
4D-\	4dd-/	.	4b-\	.	4D-\	.	.	4dd-/	4b-\	.	.
*	*	*v	*v	*	*	*	*	*	*	*	*
=7	=7	=7	=7	=7	=7	=7	=7	=7	=7	=7
*^	*	*	*	*	*	*	*	*	*	*
2ryy	2F\	2ryy	1cc 1an 1f]	.	4F\	.	.	4cc/	4an\	-dzi-	.
.	.	.	.	.	4F\	.	.	4cc/	4a\	-li	.
2F/	2FF\	2f\	.	.	2F\	Skróc	.	2rcc	2ra	.	.
*	*	*v	*v	*	*	*	*	*	*	*	*
=8	=8	=8	=8	=8	=8	=8	=8	=8	=8	=8
2E-/	2EE-\	2e-\	.	2E-\	.	.	1rdd	1rb	.	.
2D-/	2DD-\	2d-\	.	2D-\	im	.	.	.	.	.
=9	=9	=9	=9	=9	=9	=9	=9	=9	=9	=9
2C/	2CC\	2c\	.	2C\	Pa-	.	1rdd	1rb	.	.
2BB-/	2BBB-\	2B-\	.	2BB-\	-nie	.	.	.	.	.
*v	*v	*	*	*	*	*	*	*	*	*
=10	=10	=10	=10	=10	=10	=10	=10	=10	=10
2r	2dd- 2b- 2f/	.	2r	.	.	2dd-/	2b-\	ukroc	.
4r	2cc 2an 2f/	.	4r	.	.	2cc/	2an\	O	.
4F 4FF/	.	.	4F\	O	.	.	.	.	.
=11	=11	=11	=11	=11	=11	=11	=11	=11	=11
2G-X 2GG-X/	2dd- 2b- 2en/	.	2G-X\	Pa-	.	2dd-/	2b-\	Pa-	.
2F 2FF/	2cc 2an 2f/	.	2F\	-nie	.	2cc/	2an\	-nie	.
!!LO:LB:g=original
=12	=12	=12	=12	=12	=12	=12	=12	=12	=12
2.En 2.EEn/	2.cc 2.g 2.c/	.	2.En\	.	.	2cc/	2g\	ich	.
.	.	.	.	.	.	4cc/	4g\	cier-	.
4C\	4b- 4en 4c/	.	4C\	.	.	4b-/	4en\	.	.
=13	=13	=13	=13	=13	=13	=13	=13	=13	=13
!LO:N:vis=2	!	!	!	!	!	!	!	!	!
1Bn 1BBn	1a- 1f 1dn	.	1BBn	.	.	1a-	1f	-pie-	.
=14	=14	=14	=14	=14	=14	=14	=14	=14	=14
*	*^	*	*	*	*	*	*	*	*
2C\	2g 2en 2c/	2rcyy	.	2C\	.	.	2g/	2en\	-nia	.
2r	8cc/L	8a-\L	.	2r	.	.	2ra	2rf	.	.
.	8dd-/	8b-\	.	.	.	.	.	.	.	.
.	8cc/	8a-\	.	.	.	.	.	.	.	.
.	8b-/J	8g\J	.	.	.	.	.	.	.	.
=15	=15	=15	=15	=15	=15	=15	=15	=15	=15	=15
[1F [1FF	2a-/	2f\	.	2.F\	.	.	2a-/	2f\	Spraw	.
.	2cc 2a- 2f/	2reyy	.	.	.	.	4cc/	4a-\	.	.
.	.	.	.	4F\	.	.	4cc/	4a-\	by	.
=16	=16	=16	=16	=16	=16	=16	=16	=16	=16	=16
*	*	*^	*	*	*	*	*	*	*	*
1F] 1FF]	2dd-/	2b-\	1f	.	2F\	.	.	2dd-/	2b-\	wie-	.
.	2cc/	2a-\	.	.	2F\	.	.	2cc/	2a-\	-cznie	.
*	*	*v	*v	*	*	*	*	*	*	*	*
=17	=17	=17	=17	=17	=17	=17	=17	=17	=17	=17
1d- 1D-	2a-/	1f	.	2.D-\	.	.	2a-/	2.f\	z	.
.	4b-/	.	.	.	.	.	4b-/	.	to-	.
.	4bn/	.	.	4D-\	.	.	4bn/	4f\	-bą	.
!!LO:PB:g=original
=18	=18	=18	=18	=18	=18	=18	=18	=18	=18	=18
2.C\	2.cc 2.en 2.c;/	2r	.	2C\	.	.	2cc/	2en\	ży-	.
.	.	4rcyy	.	4C;\	.	.	4cc;/	4e\	-li	.
4r	8an/L	8c\L	.	4r	.	.	4r	4ryy	.	.
.	8b-/J	8e\J	.	.	.	.	.	.	.	.
*	*v	*v	*	*	*	*	*	*	*	*
=19	=19	=19	=19	=19	=19	=19	=19	=19	=19
!	!LO:N:vis=2	!	!	!	!	!	!	!	!
1A- 1AA-	8ccL 8a-/	.	2AA-\	.	.	2cc/	2a-\	Wy-	.
.	8e-/	.	.	.	.	.	.	.	.
.	8c/	.	.	.	.	.	.	.	.
.	8e-/J	.	.	.	.	.	.	.	.
.	8dd-L 8b-/	.	2AA-\	.	.	4dd-/	4b-\	-baw	.
.	8e-/	.	.	.	.	.	.	.	.
.	8ee- 8cc/	.	.	.	.	4ee-/	4cc\	.	.
.	8e-/J	.	.	.	.	.	.	.	.
=20	=20	=20	=20	=20	=20	=20	=20	=20	=20
!	!LO:N:vis=2	!	!	!	!	!	!	!	!
[<1E-	8ee-/L	.	2E-\	.	.	2ee-/	2cc\	du-	.
.	8cc/	.	.	.	.	.	.	.	.
.	8a-/	.	.	.	.	.	.	.	.
.	8e-/J	.	.	.	.	.	.	.	.
!	!LO:N:vis=2	!	!	!	!	!	!	!	!
.	8dd-/L	.	2E-\	.	.	2dd-/	2b-\	-sze	.
.	8b-/	.	.	.	.	.	.	.	.
.	8g/	.	.	.	.	.	.	.	.
.	8e-/J	.	.	.	.	.	.	.	.
=21	=21	=21	=21	=21	=21	=21	=21	=21	=21
!	!LO:N:vis=2	!	!	!	!	!	!	!	!
1E-]	8dd-/L	.	2.E-\	.	.	2dd-/	2b-\	Za-	.
.	8g/	.	.	.	.	.	.	.	.
.	8b-/	.	.	.	.	.	.	.	.
.	8dd-/J	.	.	.	.	.	.	.	.
.	8ee-L 8g/	.	.	.	.	4ee-/	4g\	-smu-	.
.	8b-/	.	.	.	.	.	.	.	.
.	8dd- 8g/	.	4E-\	.	.	4dd-/	4b-\	.	.
.	8b-/J	.	.	.	.	.	.	.	.
!!LO:LB:g=original
=22	=22	=22	=22	=22	=22	=22	=22	=22	=22
2A-\	2dd- 2b- 2g 2e-/	.	2AA-\	.	.	2dd-/	2b-\	-co-	.
2AA-/	2cc 2a- 2e-/	.	2AA-\	.	.	2cc/	2a-\	-ne	.
=23	=23	=23	=23	=23	=23	=23	=23	=23	=23
*	*^	*	*	*	*	*	*	*	*
1r	2b-/	2g\	.	1r	.	.	2b-/	2g\	wie-	.
.	4cc 4a-/	2reyy	.	.	.	.	4cc/	4a-\	-cz-	.
.	4dd- 4a-/	.	.	.	.	.	4dd-/	4b-\	-nie	.
=24	=24	=24	=24	=24	=24	=24	=24	=24	=24	=24
4.E-\	1dd-	4.g\	.	4.E-\	.	.	2dd-/	4.g\	wie-	.
8F\	.	8a-\	.	8F\	.	.	.	8a-\	-czny	.
4G\	.	4b-\	.	4G\	.	.	2dd-/	4b-\	po-	.
4G\	.	4g\	.	4E-\	.	.	.	4g\	-koj	.
*	*v	*v	*	*	*	*	*	*	*	*
=25	=25	=25	=25	=25	=25	=25	=25	=25	=25
2F\	8r	.	2F\	.	.	2dd-/	2a-\	wiecz-	.
.	8dd-/L	.	.	.	.	.	.	.	.
.	8a-/	.	.	.	.	.	.	.	.
.	8dd-/J	.	.	.	.	.	.	.	.
2E-\	8r	.	2E-\	.	.	2cc/	2a-\	-ny	.
.	8cc/L	.	.	.	.	.	.	.	.
.	8a-/	.	.	.	.	.	.	.	.
.	8cc/J	.	.	.	.	.	.	.	.
!!LO:LB:g=original
=26	=26	=26	=26	=26	=26	=26	=26	=26	=26
1D-	8r	.	2D-\	.	.	2cc/	2f\	po-	.
.	8cc/L	.	.	.	.	.	.	.	.
.	8f/	.	.	.	.	.	.	.	.
.	8cc/J	.	.	.	.	.	.	.	.
.	8r	.	2D-\	.	.	2b-/	2f\	-kój	.
.	8b-/L	.	.	.	.	.	.	.	.
.	8f/	.	.	.	.	.	.	.	.
.	8b-/J	.	.	.	.	.	.	.	.
=27	=27	=27	=27	=27	=27	=27	=27	=27	=27
1C	8r	.	2C\	.	.	2b-/	2e-\	daj	.
.	8b-/L	.	.	.	.	.	.	.	.
.	8e-/	.	.	.	.	.	.	.	.
.	8b-/J	.	.	.	.	.	.	.	.
.	8r	.	2C\	.	.	2a-/	2e-\	im	.
.	8a-/L	.	.	.	.	.	.	.	.
.	8e-/	.	.	.	.	.	.	.	.
.	8a-/J	.	.	.	.	.	.	.	.
=28	=28	=28	=28	=28	=28	=28	=28	=28	=28
*	*^	*	*	*	*	*	*	*	*
1BBn	2.a- 2.f/	2.dn\	.	1BBn	.	.	2.a-/	1f	Pa-	.
.	4g 4f 4d/	4rcyy	.	.	.	.	4g/	.	.	.
*	*v	*v	*	*	*	*	*	*	*	*
=29	=29	=29	=29	=29	=29	=29	=29	=29	=29
1C;	1g 1en 1c;	.	1C;	.	.	1g;	1en	-nie	.
=30	=30	=30	=30	=30	=30	=30	=30	=30	=30
[1c [1C	1g 1en	.	2.C\	.	.	2.g/	2.en\	Nie-	.
.	.	.	4C\	.	.	4g/	4e\	-chaj	.
!!LO:PB:g=original
=31	=31	=31	=31	=31	=31	=31	=31	=31	=31
!LO:TX:t=P:problem=brak zakończenia ligatur	!	!	!	!	!	!	!	!	!
1c] 1C]	1a- 1f	.	2.C\	.	.	2.a-/	2.f\	bę-	.
.	.	.	4C\	.	.	4a-/	4f\	-dą	.
=32	=32	=32	=32	=32	=32	=32	=32	=32	=32
*^	*	*	*	*	*	*	*	*	*
4F/	1FF	1cc 1a-	.	2F\	.	.	2cc/	2a-\	po-	.
4AA-/	.	.	.	.	.	.	.	.	.	.
4AA-/	.	.	.	2F\	.	.	2cc/	2a-\	-cie-	.
4F/	.	.	.	.	.	.	.	.	.	.
*v	*v	*	*	*	*	*	*	*	*	*
=33	=33	=33	=33	=33	=33	=33	=33	=33	=33
1En 1EEn	2dd- 2b-/	.	2En\	.	.	2dd-/	2b-\	-szo-	.
.	2cc 2b- 2g/	.	2E\	.	.	2cc/	2g\	-ne	.
=34	=34	=34	=34	=34	=34	=34	=34	=34	=34
!LO:N:vis=2	!	!	!	!	!	!	!	!	!
2.F 2.FF/	2.cc 2.a- 2.e-/	.	2F\	.	.	2cc/	2a-\	.	.
.	.	.	4F\	.	.	4cc/	4a-\	.	.
!	!	!	!LO:TX:b:t=bemol	!	!	!	!	!	!
4E-X 4EE-X/	4ff 4cc 4an 4f/	.	4E-X\	.	.	4ff/	4an\	.	.
=35	=35	=35	=35	=35	=35	=35	=35	=35	=35
2D-\	2ff 2b- 2f/	.	2D-\	.	.	2ff/	2b-\	.	.
4C\	4ee- 4an 4f/	.	4C\	.	.	4ee-/	4an\	.	.
4BB-\	4dd- 4b- 4f/	.	4BB-\	.	.	4dd-/	4b-\	.	.
=36	=36	=36	=36	=36	=36	=36	=36	=36	=36
*^	*	*	*	*	*	*	*	*	*
2.c/	2ryy	4cc 4a-X/	.	2.C\	.	.	4cc/	4a-X\	ich	.
.	.	4b- 4g/	.	.	.	.	4b-/	4g\	.	.
.	2C\	4a- 4f/	.	.	.	.	4a-/	4f\	ka-	.
4B-\	.	4g 4en/	.	4C\	.	.	4g/	4en\	.	.
*	*	*	*	*	*	*	*v	*v	*	*
!!LO:LB:g=original
=37	=37	=37	=37	=37	=37	=37	=37	=37	=37
*	*	*^	*	*	*	*	*	*	*
2.A-/	2.F\	2.f/	2.f\	.	2F\	.	.	2f/	-ra-	.
.	.	.	.	.	4F\	.	.	4f/	-nie	.
4r	4ryy	4r	4rgyy	.	4r	.	.	4r	.	.
*v	*v	*	*	*	*	*	*	*	*	*
*	*v	*v	*	*	*	*	*	*	*
==	==	==	==	==	==	==	==	==
*-	*-	*-	*-	*-	*-	*-	*-	*-
!!!system-decoration: (s1,s2,s3,s4)
!!!RDF**kern: < = below
!!!ENC: Marcin Jachim
!!!END: 2020-11-08
!!!ENC: Marta Lawrence
!!!END: 2021-11-16
!!!YEC: Copyright 2022 Narodowy Instytut Fryderyka Chopina (https://polishscores.org)
!!!YEM: License CC-BY-4.0 (https://creativecommons.org/licenses/by/4.0)
